!!!!SEGMENT: pl-wtm--r-2018--001_smietanski-emil-wladyslaw--souvenir-de-vienne-no-2.krn
!!!cenid: 18xx:1968
!!!COM: Śmietański, Emil Władysław
!!!COM-rismID: pe50041781
!!!CDT: 1845-1886
!!!CNT: Polish
!!!OTL: Souvenir de Vienne - No 2
!!!PDT: 1866
!!!AGN: Secular; Vienna
!!!SMS-siglum: PL-Wtm
!!!SMS-shelfmark: R 2018
!!!SMS-shelfwork: 001 W
!!!SMS-variant:
!!!SMS-altvar:
!!!NIFC-rismSourceID: 1001112985
!!!NIFC-islandoraID:
!!!URL-pdf-islandora:
!!!URL-scan:
!!!ONB-nifc: UWAGA: w zbiorze Valse de Concert No. 2 (001) i Valse de Concert No. 3 (002)
!!!AIN: 1 empty 1 forte
!!!key:
**kern	**kern	**dynam
*part2	*part1	*part1
*staff2	*staff1	*
*Iempty	*Iforte	*
*	*I"Fortepian	*
*clefF4	*clefG2	*
*k[b-e-a-d-]	*k[b-e-a-d-]	*
*A-:	*A-:	*
*M3/4	*M3/4	*
=1	=1	=1
*>A	*>A	*
2r	4e-/	.
.	32qqg/	p
.	4f/	.
4r	4e-/	.
=2	=2	=2
4EE-/	2.ee-\	.
4an\ 4g\ 4c\	.	.
4b-\ 4g\ 4d-\	.	.
=3	=3	=3
2r	4e-\	<
.	32qqg\	.
.	4f\	.
4r	4e-\	.
=4	=4	=4
4EE-/	2.ee-\	.
4an\ 4g\ 4c\	.	.
4b-\ 4g\ 4d-\	.	.
=5	=5	=5
2r	4ee-\	.
.	32qqgg/	.
.	4ff\	.
!	!LO:TX:i:b:t=espr.	!
4r	4ee-\	.
=6	=6	=6
4E-\	2eee-\	>
4an\ 4g\ 4c\	.	.
4b-\ 4g\ 4d-\	4ee-\	]]
=7	=7	=7
4E-\	2eee-\	>
4an\ 4g\ 4c\	.	.
4b-\ 4g\ 4d-\	4ee-\	]]
=8	=8	=8
4r	4an/ 4g/	.
!	!LO:TX:i:b:t=ms.	!
4b->\ 4g>\	4ryy	.
4r	4bn/ 4g/	.
=9||	=9||	=9||
4AA-\	4cc/' 4a-'/	pp
4E-\	4r	.
4e-\ 4A-\	(<4cc/ 4a-/	.
!LO:LB:g=original	!LO:LB:g=original	!
=10	=10	=10
!	!LO:TX:i:b:t=dolcissim.	!
!	!LO:TX:t=P:problem=zakończenie łuku na górze	!
4BB-\	4ff\' 4bn'\)	.
4Dn\	4r	.
4dn\ 4A-\	(4ff\ 4b\	.
=11	=11	=11
4AA-\	4b-X\ 4g'\)	.
4D-X\	4r	.
4d-X\ 4G\	(4b-\ 4g\	.
=12	=12	=12
4AA-\	4ee-\ 4an\)	.
4C\	4r	.
4c\ 4G-X\	4ee-\ 4a\	.
=13	=13	=13
4DD-/	2a-X\ 2f\	.
4D-\	.	.
4d-\ 4F\	4b-\ 4f\	.
=14	=14	=14
4EE-/	2cc\ 2a-\	<
4E-\	.	.
4a-\ 4c\	[4ee-\ [4cc\	[[
=15	=15	=15
4EE-/	4ee-\] 4cc\]	>
4f\ 4E-^^\	4ddn\ 4bn\	.
4g^^\	4dd-X\ 4b-X\	]
=16	=16	=16
4AA-\	(2cc\ 2a-\	.
4E-\	.	.
8a-\ 8c\	8aa-\ 8cc\)	.
8r	8r	.
=17	=17	=17
4AA-\	4cc\ 4a-\	.
4E-\	4bn\ 4g\	.
4e-\ 4A-\	(4cc\' 4a-'\	<
=18	=18	=18
4AA-\	4ff\' 4bn'\)	[
4Dn\	4r	.
4dn\ 4A-\	(4ff\ 4b\	.
!LO:LB:g=original	!LO:LB:g=original	!
=19	=19	=19
!	!LO:TX:t=P:problem=brak zakończenia łuku	!
4AA-\	4b-\ 4g\)	.
4D-\	4an\ 4f#X\	.
4d-\ 4G\	(4b-\ 4g\	<
=20	=20	=20
4AA-\	4ee-\ 4an'\)	[
4C\	4r	.
4c\ 4G-X\	4ee-\ 4a\	.
=21	=21	=21
4DD-/	4a-X\ 4f'\	.
4A-\ 4F\	4b-\ 4f'\	.
4DDn/	4bn\ 4f'\	.
=22	=22	=22
4EE-/	4cc\ 4a-'\	.
4E-\	4dd-\ 4b-'\	.
4a-\ 4c\	4ddn\ 4bn'\	.
=23	=23	=23
4E-\	4ee-\ 4cc'\	.
4g\ 4d-\	8een\L 8dd-'\	.
.	8ff\ 8dd-'\	.
*clefG2	*	*
4ee-\	8ff#X\ 8dd-'\	.
.	8gg\J 8dd-'\	.
=24	=24	=24
4A-/	4aa-\ 4cc'\	.
4ee-\	4r	.
4r	(4ee-\	.
=25	=25	=25
4A-/	4ccc\ 4aa-'\)	.
4e-/	4r	.
4ee-/ 4a-/	(4ccc\ 4aa-\	<
=26	=26	=26
4A-/	4fff\ 4bbn'\)	[
4dn/	4r	.
4ddn/ 4a-/	(4fff\ 4bb\	>]
!LO:LB:g=original	!LO:LB:g=original	!
=27	=27	=27
!LO:TX:t=P:problem=za każdym razem jak w partii lewej ręki w nowym systemie jest klucz G2 najpierw jest F4, potem znaki przykluczowe i klucz G2	!	!
4A-/	4bb-X\ 4gg'\)	.
4d-X/	4r	.
4dd-/ 4g/	(4bb-\ 4gg\	<
=28	=28	=28
4A-/	4eee-\ 4aan'\)	[
4c/	4r	.
4cc/ 4g-X/	4eee-\ 4aa\	.
=29	=29	=29
4D-/	2aa-X\ 2ff\	.
4d-/	.	.
4dd-\ 4f\	4bb-\ 4ff\	.
=30	=30	=30
4E-/	2ccc\ 2aa-\	<
4e-/	.	.
4aa-\ 4cc\	[4eee-\ 4ccc\	[
=31	=31	=31
4E-/	4eee-\] 4ccc\	>
4ff\ 4e-\	4dddn\ 4bbn\	.
4gg\	4ddd-X\ 4bb-X\	]
=32	=32	=32
4A-/	(2ccc\ 2aa-\	.
4e-/	.	.
4aa-\ 4cc\	8aaa-\ 8ccc\)	.
.	8r	.
=33	=33	=33
4A-/	4ccc\ 4aa-\	.
.	32qqccc/	.
4e-/	4ddd-\ 4aa-\	.
4ee-/ 4a-/	(4ccc\ 4aa-\	<
=34	=34	=34
4A-/	4fff\ 4bbn'\)	.
4dn/	4r	[
4ddn/ 4a-/	4fff\ 4bb\	.
=35	=35	=35
4A-/	4bb-X\ 4gg\	.
.	32qqddd-/	.
4d-X/	4ccc\ 4gg\	.
4dd-X/ 4g/	(4bb-\ 4gg\	.
!LO:LB:g=original	!LO:LB:g=original	!
=36	=36	=36
!LO:TX:t=P:problem=na początku taktu/systemu jest tu klucz basowy, \nale tak naprawdę powinien być wiolinowy ciągle	!	!
*clefF4	*	*
!LO:CL:ed	!	!
*clefG2	*	*
4A-/	4eee-\ 4aan'\)	.
4c/	4r	.
4cc\ 4g-X\	4eee-\ 4aa\	.
*clefF4	*	*
=37	=37	=37
4D-\	4aa-X\ 4ff'\	.
4a-\ 4f\	4bb-\ 4ff'\	.
4Dn\	4bbn\ 4ff'\	.
=38	=38	=38
4E-\	4ccc\ 4aa-'\	.
*clefG2	*	*
4e-/	4ddd-\ 4bb-'\	.
4aa-\ 4cc\	4dddn\ 4bbn'\	.
=39	=39	=39
4e-\	4eee-\ 4ccc'\	.
4gg\ 4dd-\	8eeen\L 8ddd-'\	.
.	8fff\ 8ddd-'\	.
4eee-\	8fff#X\ 8ddd-'\	.
.	8ggg\J 8ddd'\	.
=40	=40	=40
4aa-\	4aaa-\ 4ccc\	.
4a-\	4r	.
4ryy	8ee-\L 8g\	p
.	8ee-\J 8g\	.
*clefF4	*	*
=41||	=41||	=41||
!	!LO:TX:i:b:t=scherzando	!
4G\ 4C'\	4ee-\ 4g\	.
8c'\L	4ee-\ 4cc\	.
8dn'\J	.	.
4e-'\	4ee-\' 4b-'\	.
=42	=42	=42
4f'\	4.ee-\ 4.an\	.
8e-'\L	.	.
8An'\J	8ccc\ 8ee-\	.
4FF'/	4ccc\ 4ee-\	.
=43	=43	=43
4F\ 4BB-'\	4ddn\ 4f\	.
8B-'\L	4dd\ 4b-\	.
8c'\J	.	.
4dn'\	4dd\ 4a-\	.
!LO:LB:g=original	!LO:LB:g=original	!
=44	=44	=44
4e-M\	4.ee-\ 4.g\	.
8d-X'\L	.	.
8G'\J	8eee-\ 8gg\	.
4EE-/	4eee-\ 4gg\	.
=45	=45	=45
4AA-/	8eee-\L 8ccc\	.
.	8ff\J	.
4e-\ 4c\ 4G-X\	4ccc\ 4gg-X'\	.
4AAn/	8ccc\L 8gg-\	.
.	8ddn\J	.
=46	=46	=46
4BB-/	8bb-\L 8ggn\	.
.	8ddn\J	.
4gn\ 4e-\ 4B-\	4gg\ 4ee-'\	.
4r	8gg\L 8ee-\	.
.	8b-\J	.
=47	=47	=47
4a-\ 4dn\	8aa-\L 8ddn\	.
.	8cc\	.
4B-\	8ff\ 8bn\	.
.	8b-X\	.
4BB-/	8ddn\ 8an\	.
.	8a-X\J	.
=48	=48	=48
(>4E-/	(4ee-\ 4g\	.
4EE-'/)	4eee-\ 4gg'\)	.
4r	8ee-\L 8g\	.
.	8ee-\J 8g\	.
=49	=49	=49
!	!LO:TX:i:b:t=rubato.	!
4G\ 4C\	4ee-\ 4g\	.
8c'\L	4ee-\ 4cc\	.
8dn'\J	.	.
4e-'\	4ee-\ 4b-\	.
=50	=50	=50
4fM\	4.ee-\ 4.an\	.
8e-'\L	.	.
8An'\J	8ccc\ 8ee-\	.
4FF/	4ccc\ 4ee-\	.
!LO:PB:g=original	!LO:PB:g=original	!
=51	=51	=51
4F\ 4BB-'\	4ddn\ 4f\	.
8B-'\L	4dd\ 4b-\	.
8c'\J	.	.
4dn'\	4dd\ 4a-\	.
=52	=52	=52
4e-M\	4.ee-\ 4.g\	.
8d-X'\L	.	.
8G'\J	8eee-\ 8gg\	.
4EE-'/	4eee-\ 4gg\	.
=53	=53	=53
4AA-/	8eee-\L 8ccc\	.
.	8ff\J	.
4e-\ 4c\ 4F#X\	4ccc\ 4ff#X\	.
4AAn/	8ccc\L 8ff#\	.
.	8ddn\J	.
=54	=54	=54
4GG/	8gg\L 8ee-\	.
.	8bn\J	.
4e-\ 4c\ 4G\	4ee-\ 4cc\	.
4r	8ee-\L 8cc\	.
.	8g\J	.
=55	=55	=55
4f\ 4Bn\	8ddn\L 8a-\	.
.	8g\	.
4G\	8bn\ 8f#X\	.
.	8fn\	.
4GG/	8b\ 8e-\	.
.	8dn\J	.
=56	=56	=56
4C/	4cc\ 4e-\	.
4CC/	4r	.
4r	4ee-\ 4g\	.
=57	=57	=57
4CC/	8ee-\L 8g'\	f
.	8ee-\J 8g'\	.
!	!LO:TX:i:b:t=risoluto	!
4e-\ 4G\	4ee-\ 4g'\	.
4r	8ee-\L 8cc'\	.
.	8b-'\J	.
!LO:LB:g=original	!LO:LB:g=original	!
=58	=58	=58
4FF\	8ee-\L 8an'\	.
.	8gg\ 8cc'\	.
4e-\ 4An\	8aan\ 8ee-'\	.
.	8ccc\J 8gg'\	.
4an\ 4e-\	4ggg\ 4ccc'\	.
=59	=59	=59
4BB-\	8ddn\L 8f'\	.
.	8dd\J 8f'\	.
4dn\ 4A-X\	4dd\ 4f'\	.
4r	8dd\L 8b-'\	.
.	8a-'\J	.
=60	=60	=60
4EE-\	8ee-\L 8g'\	.
.	8ff\ 8b-'\	.
4e-\ 4G\	8gg\ 8ee-'\	.
.	8bb-\J 8ff'\	.
4b-\ 4e-\	4eee-\ 4gg'\	.
=61	=61	=61
4AAn\	8eee-\L 8ccc\	.
.	8ff\J	.
4cc\ 4f#X\ 4e-\ 4An\	4ccc\ 4ff#X\	.
4r	8ccc\L 8ff#\	.
.	8ddn\J	.
=62	=62	=62
4BB-\	8bb-\L 8gg\	.
.	8ddn\J	.
4b-\ 4g\ 4e-\ 4B-\	4gg\ 4ee-\	.
4r	8gg\L 8ee-\	.
.	8b-\J	.
*clefG2	*	*
=63	=63	=63
8b-/L 8B-/	8aa-\L 8ddn\	.
8an/	8cc\	.
8a-X/	8ff\ 8bn\	.
8g/	8b-X\	.
8f#X/	8dd\ 8an\	.
8fn/J	8a-X\J	.
=64	=64	=64
4e-/	4ee-\ 4g\	.
4E-/	4eee-\ 4gg\	.
*	*8va	*
4r	4eeee-\ 4ggg\	.
*	*X8va	*
*clefF4	*	*
!LO:LB:g=original	!LO:LB:g=original	!
=65	=65	=65
4C\	8eee-\L 8gg\	.
.	8eee-\J 8gg\	pp
*clefG2	*	*
4ee-\ 4g\ 4e-\	4eee-\ 4gg\	.
4r	8eee-\L 8ccc\	.
.	8bb-\J	.
=66	=66	=66
4F/	8eee-\L 8aan\	.
.	8ggg\ 8ccc\	.
4an\ 4e-\	8aaan\ 8eee-\	.
*	*8va	*
.	8cccc\J 8ggg\	.
4ee-\ 4a\	4eeee-\ 4aaa\	.
*	*X8va	*
*clefF4	*	*
=67	=67	=67
4BB-\	8dddn\L 8ff\	.
.	8ddd\J 8ff\	.
*clefG2	*	*
4ddn\ 4a-\ 4dn\	4ddd\ 4ff\	.
4r	8ddd\L 8bb-\	.
.	8aa-\J	.
=68	=68	=68
4E-/	8eee-\L 8gg\	.
.	8fff\ 8bb-\	.
*	*8va	*
4g/ 4B-/	8ggg\ 8eee-\	.
.	8bbb-\J 8fff\	.
4ee-/ 4g/	4eeee-\ 4ggg\	.
*	*X8va	*
*clefF4	*	*
=69	=69	=69
*	*8va	*
!	!LO:TX:i:a:rj:t=loco	!
4AAn\	8eeee-\L 8cccc\	.
.	8fff\	.
4cc\ 4f#X\ 4e-\ 4An\	8cccc\ 8fff#X\	.
.	8dddn\	.
4r	8fff#\ 8eee-\	.
!	!LO:TX:b:t=rallen-tan-do:dur=6qe:ext2=cd:problem=text with extention lines	!
.	8aan\J	.
*	*X8va	*
=70	=70	=70
4BB-\	8ggg\L 8eee-\	.
.	8aan\	.
4b-\ 4g\ 4e-\ 4B-\	8eee-\ 8bb-\	.
.	8ff#X\	.
4r	8bb-\ 8gg\	.
.	8ee-\J	.
!LO:LB:g=original	!LO:LB:g=original	!
=71	=71	=71
4BB-\	8aa-\L 8ddn\	.
.	8cc\J	.
8a-\L 8B-\	8ff\L 8bn\	.
8g\J	8b-X\J	.
8f#X\L	8dd\L 8an\	.
8fn\J	8a-X\J	.
=72	=72	=72
4e-\	4ee-\ 4g\	.
4E-\	4r	.
4r	(4e-\	.
=73||	=73||	=73||
!	!LO:TX:i:b:t=à tempo.	!
4AA-\	4cc\ 4a-'\)	.
4E-\	4r	.
4e-\ 4A-\	(4ccc\ 4aa-\	.
=74	=74	=74
4AA-\	4fff\ 4bbn'\)	.
4Dn\	4r	.
!	!	!LO:DY:rj
4dn\ 4A-\	(4ff\ 4bn\	p
=75	=75	=75
4AA-\	4b-X\ 4g'\)	.
4D-X\	4r	.
4d-X\ 4G\	(4bb-X\ 4gg\	.
=76	=76	=76
4AA-\	4eee-\ 4aan'\)	.
4C\	4r	.
4c\ 4G-X\	4ee-\ 4an\	.
=77	=77	=77
4DD-/	2a-X\ 2f\	.
4D-\	.	.
4d-\ 4F\	4b-\ 4f\	.
=78	=78	=78
4EE-/	2cc\ 2a-\	.
4E-\	.	.
4a-\ 4c\	[4ee-\ 4cc\	.
=79	=79	=79
4EE-/	4ee-\] 4cc\	.
4f\ 4E-\	4ddn\ 4bn\	.
4g\	4dd-X\ 4b-X\	.
!LO:LB:g=original	!LO:LB:g=original	!
=80	=80	=80
4AA-\	(2cc\ 2a-\	.
4E-\	.	.
8a-\ 8c\	8aa-\ 8cc'\)	.
8r	8r	.
=81	=81	=81
4AA-\	4cc\ 4a-\	.
4E-\	4bn\ 4g\	.
4e-\ 4A-\	4cc\ 4a-\	.
=82	=82	=82
4AA-\	4ff\ 4bn'\	.
4Dn\	8r	.
.	16r	.
.	16fff\ 16bbn\	.
4dn\ 4A-\	4fff\ 4bb\	.
=83	=83	=83
4AA-\	4b-\ 4g\	.
4D-X\	4an\ 4f#X\	.
4d-X\ 4G\	4b-\ 4g\	.
=84	=84	=84
4AA-\	4ee-\ 4an\	.
4C\	8r	.
.	16r	.
.	16ccc\ 16aan\	.
4c\ 4G-X\	4ccc\ 4aa\	.
=85	=85	=85
4DD-/	4a-/ 4f'/	.
4A-/ 4F/	4b-/ 4f'/	.
4DDn/	4bn/ 4f'/	.
=86	=86	=86
4EE-/	4cc\ 4a-'\	.
4E-\	4dd-\ 4b-'\	.
4a-\ 4c\	4ddn\ 4bn'\	.
=87	=87	=87
4E-\	4ee-\ 4cc'\	.
4g\ 4d-\	8een\L 8dd-'\	.
.	8ff\ 8dd-'\	.
*clefG2	*	*
4ee-\	8ff#X\ 8dd-'\	.
.	8gg\J 8dd-'\	.
!LO:LB:g=original	!LO:LB:g=original	!
=88	=88	=88
4A-/	4aa-\ 4cc\	.
4ee-\	4r	.
4r	(4ee-\	.
=89	=89	=89
4A-/	4ccc\ 4aa-'\)	pp
4e-/	4r	.
*	*8va	*
4ee-\ 4a-\	(4cccc\ 4aaa-\	.
=90	=90	=90
4A-/	4ffff\ 4bbbn'\)	.
*	*X8va	*
4dn/	4r	.
4ddn\ 4g\	(4fff\ 4bb\	.
=91	=91	=91
4A-/	4bb-X\ 4gg'\)	.
4d-X/	4r	.
*	*8va	*
4dd-X\ 4g\	(4bbb-\ 4ggg\	.
=92	=92	=92
4A-/	4eeee-\ 4aaan'\)	.
*	*X8va	*
4c/	4r	.
4cc\ 4g-X\	4eee-\ 4aa\	.
=93	=93	=93
4D-/	2aa-X\ 2ff\	.
4d-/	.	.
4dd-/ 4f/	4bb-\ 4ff\	.
=94	=94	=94
4E-/	2ccc\ 2aa-\	.
4e-\	.	.
4aa-\ 4cc\	[4eee-\ 4ccc\	.
=95	=95	=95
4E-/	4eee-\] 4ccc\	.
4ff\ 4e-\	4dddn\ 4bbn\	.
4gg\	4ddd-X\ 4bb-X\	.
=96	=96	=96
4A-/	2ccc\ 2aa-\	.
4e-/	.	.
4aa-\ 4cc\	4aaa-\ 4ccc\	.
!LO:PB:g=original	!LO:PB:g=original	!
=97	=97	=97
4A-/	(4ccc\ 4aa-\	<
.	32qqeee-/	[ >
4e-/	4ddd-\ 4aa-\	.
4ee-/ 4a-/	4ccc\ 4aa-\	]
=98	=98	=98
4A-/	4fff\ 4bbn'\)	.
4dn/	8r	.
.	16r	.
*	*8va	*
.	16ffff\ 16bbb\	.
4ddn/ 4a-/	4ffff\ 4bbb\	.
*	*X8va	*
=99	=99	=99
4A-/	(4bb-X\ 4gg\	<
.	32qqddd-/	[ >
4d-X/	4ccc\ 4gg\	.
4dd-X/ 4g/	4bb-\ 4gg\	]]
=100	=100	=100
4A-/	4eee-\ 4aan'\)	.
4c/	8r	.
.	16r	.
*	*8va	*
.	16eeee-\ 16aaa\	.
4cc/ 4g-X/	4eeee-\ 4aaa\	.
*	*X8va	*
=101	=101	=101
!	!LO:TX:i:b:t=leggero.	!
4D-/	4aa-X\ 4ff'\	.
4a-/ 4f/	4bb-\ 4ff'\	.
4Dn/	4bbn\ 4ff'\	.
=102	=102	=102
4E-/	4ccc\ 4aa-'\	.
4e-/	4ddd-\ 4bb-'\	.
4aa-\ 4cc\	4dddn\ 4bbn'\	.
=103	=103	=103
4e-/	4eee-\ 4ccc'\	.
4gg\ 4dd-\	8eeen\L 8ddd-'\	.
.	8fff\ 8ddd-'\	.
4eee-\	8fff#X\ 8ddd-'\	.
.	8ggg\J 8ddd-'\	.
!LO:LB:g=original	!LO:LB:g=original	!
=104	=104	=104
4aa-'\	4aaa-\ 4ccc'\	.
4a-'\	4r	.
4r	4a-/	.
*clefF4	*	*
=105!|:	=105!|:	=105!|:
*>B	*>B	*
!	!LO:TX:i:b:t=marcato il tema.	!
4f\ 4d-\	8aa-\L	.
.	8a-\	.
4D-\	8a-\	ff
.	8a-\	.
4f\ 4d-\	8aa-\	.
.	8a-\J	.
=106	=106	=106
4b-\ 4en\	8gg\L	.
.	8g\	.
4D-\	8g\	.
.	8g\	.
4b-\ 4e\	8gg\	.
.	8g\J	.
=107	=107	=107
4e-X\ 4c\	8gg-X\L	.
.	8g-X\	.
4D-\	8g-\	.
.	8g-\	.
4e-\ 4c\	8gg-\	.
.	8g-\J	.
=108	=108	=108
4a-\ 4dn\	8ff\L	.
.	8f\	.
4D-X\	8f\	.
.	8f\	.
4a-\ 4d\	8ff\	.
.	8f\J	.
=109	=109	=109
4dn\ 4B-\	8ff\L	.
.	8f\	.
4GG-X/	8f\	.
.	8ff\	.
4e-\ 4B-\	8g-X\	.
.	8gg-X\J	.
=110	=110	=110
4f\ 4d-\	8gn\L	.
.	8ggn\	.
4AA-\	8a-\	.
.	8aa-\	.
4a-\ 4f\	8dd-\	.
.	8ddd-\J	.
!LO:LB:g=original	!LO:LB:g=original	!
=111	=111	=111
4AA-\	8ddn\L	.
.	8dddn\	.
4gn\ 4B-\	8ee-\	.
.	8eee-\	.
4g-X\ 4c\	8een\	.
.	8eeen\J	.
=112	=112	=112
4f\ 4d-\	8ff\L	.
.	8fff\	.
4D-\	8dd-\	.
.	8ddd-\	.
*clefG2	*	*
4dd-\ 4f\	8a-\	.
.	8aa-\J	.
*clefF4	*	*
=113	=113	=113
4f\ 4d-\	8aa-\L	.
.	8a-\	.
4D-\	8a-\	.
.	8a-\	.
4f\ 4d-\	8aa-\	.
.	8a-\J	.
=114	=114	=114
4b-\ 4en\	8gg\L	.
.	8g\	.
4D-\	8g\	.
.	8g\	.
4b-\ 4e\	8gg\	.
.	8g\J	.
=115	=115	=115
4e-\ 4c\	8gg-X\L	.
.	8g-X\	.
4D-\	8g-\	.
.	8g-\	.
4e-\ 4c\	8gg-\	.
.	8g-\J	.
=116	=116	=116
4a-\ 4dn\	8ff\L	.
.	8f\	.
4D-X\	8f\	.
.	8f\	.
4a-\ 4d\	8ff\	.
.	8f\J	.
=117	=117	=117
4GG-X\	8ff\L	.
.	8f\	.
4e-\ 4B-\	8g-X\	.
.	8gg-X\	.
4en\	8gn\	.
.	8ggn\J	.
!LO:LB:g=original	!LO:LB:g=original	!
=118	=118	=118
4AA-\	8aa-\L	.
.	8a-\	.
4g-X\ 4d-\	8b-\	.
.	8bb-\	.
4gn\	8bn\	.
.	8bbn\J	.
=119	=119	=119
4A-\	8cc\L	.
.	8ccc\J	.
*clefG2	*	*
8a-/L 8g-X/	4fff\ 4aa-\	.
8b-/	.	.
8bn/	4eee-\	.
8cc/J	.	.
=120	=120	=120
4dd-/ 4f/	4ddd-\ 4aa-\	.
*	*8va	*
4D-/	4dddd-\	.
*	*X8va	*
4r	4r	.
*clefF4	*	*
=121:|!	=121:|!	=121:|!
*>C	*>C	*
8BB-\L	4dd-\ 4b-\	p
8f\	.	.
8g-X\	4dd-\ 4b-\	.
8f\	.	.
!	!LO:TX:i:b:t=espressivo.	!
8g-\	4ee-\ 4cc\	.
8f\J	.	.
*clefG2	*	*
=122	=122	=122
8B-/L	2ff\ 2dd-\	.
8f/	.	.
8g-X/	.	.
8f/	.	.
8g-/	4bb-\ 4dd-\	.
8f/J	.	.
=123	=123	=123
8B-/L	4aan\ 4ee-\	.
8f/	.	.
8g-X/	4ddd-\ 4ff\	.
8f/	.	.
8an/	4ccc\ 4ee-\	.
8f/J	.	.
=124	=124	=124
8B-/L	2bb-\ 2dd-\	.
8f/	.	.
8g-X/	.	.
8f/	.	.
8b-/	4ff\ 4dd-\	.
8f/J	.	.
=125	=125	=125
8E-/L	4gg-X\ 4ee-\	.
8b-/	.	.
8cc-X/	4gg-\ 4ee-\	.
8b-/	.	.
8cc-/	4aa-\ 4ff\	.
8b-/J	.	.
!LO:LB:g=original	!LO:LB:g=original	!
=126	=126	=126
8e-/L	2bb-\ 2gg-X\	.
8b-/	.	.
8cc-X/	.	.
8b-/	.	.
8ee-/	4eee-\ 4gg-\	.
8b-/J	.	.
=127	=127	=127
8e-/L	4dddn\ 4aa-\	.
8b-/	.	.
8cc-X/	4ggg-X\ 4bb-\	.
8b-/	.	.
8ddn/	4fff\ 4aa-\	.
8b-/J	.	.
=128	=128	=128
8e-/L	2eee-\ 2gg-X\	.
8b-/	.	.
8cc-X/	.	.
8b-/	.	.
8ee-/	4bb-\ 4gg-\	.
8b-/J	.	.
=129	=129	=129
8F/L	4aan\ 4ee-\	.
8f/	.	.
8g-X/	4ddd-\ 4ff\	.
8f/	.	.
8an/	4ccc\ 4ee-\	.
8f/J	.	.
=130	=130	=130
8B-/L	2bb-\ 2dd-\	>
8f/	.	.
8g-X/	.	.
8f/	.	.
8b-/	4ff\ 4dd-\	]
8f/J	.	.
=131	=131	=131
8c/L	2bb-\ 2cc\	>
8en/	.	.
8g-X/	.	.
8e/	.	.
8b-/	4een\ 4cc\	]]
8e/J	.	.
=132	=132	=132
8F/L	2aan\ 2cc\	>
8f/	.	.
8g-X/	.	.
8f/	.	.
8an/	4ff\ 4cc\	]]
8f/J	.	.
=133	=133	=133
8BB-/L	4dd-\ 4b-\	.
8f/	.	.
8g-X/	4dd-\ 4b-\	.
8f/	.	.
8an/	4ee-\ 4cc\	.
8f/J	.	.
=134	=134	=134
8B-/L	2ff\ 2dd-\	.
8f/	.	.
8g-X/	.	.
8f/	.	.
8b-/	4bb-\ 4dd-\	.
8f/J	.	.
!LO:LB:g=original	!LO:LB:g=original	!
=135	=135	=135
8B-/L	4aan\ 4ee-\	<
8f/	.	.
8g-X/	4ddd-\ 4ff\	[
8f/	.	>
8an/	4ccc\ 4ee-\	]]
8f/J	.	.
=136	=136	=136
8B-/L	2bb-\ 2dd-\	.
8f/	.	.
8g-X/	.	.
8f/	.	.
8b-/	4ff\ 4dd-\	.
8f/J	.	.
=137	=137	=137
!LO:TX:t=P:problem=mixed beam	!	!
8D-/L	4ff\ 4dd-\	.
8a-\	.	.
8b-\	4ff\ 4dd-\	.
8a-\	.	.
8b-\	4gg-X\ 4ee-\	.
8a-\J	.	.
=138	=138	=138
8d-\L	2aa-\ 2ff\	.
8a-\	.	.
8b-\	.	.
8a-\	.	.
8b-\	4ddd-\ 4ff\	>
8a-\J	.	]]
=139	=139	=139
8d-\L	4ccc\ 4gg-X\	<
8a-\	.	.
8b--\	4fff\ 4aa-\	[ >
8a-\	.	.
8cc\	4eee-\ 4gg-\	] <
8a-\J	.	[[
=140	=140	=140
8d-\L	2ddd-\ 2ff\	.
8a-\	.	.
8b-\	.	.
8a-\	.	.
8dd-\	4aa-\ 4ff\	.
8a-\J	.	.
=141	=141	=141
8E-/L	4ggn\ 4dd-\	.
8e-/	.	.
8f/	4ccc\ 4ee-\	.
8e-/	.	.
8gn/	4bb-\ 4dd-\	.
8e-/J	.	.
=142	=142	=142
8A-/L	2aa-\ 2cc\	.
8e-/	.	.
8f/	.	.
8e-/	.	.
8a-/J	8r	.
8r	8a-/	<
=143	=143	=143
4A-/	8aa-/L	.
.	8a-/J	.
4a-/	8r	.
!	!LO:TX:t=P:problem=mixed beam	!
.	8a-/L	.
4r	8aa-\	.
.	8a-/J	[[
!LO:PB:g=original	!LO:PB:g=original	!
=144	=144	=144
4r	8aa-\L	.
.	8a-\J	.
8a-/	8r	.
8r	8a-\L	.
4r	8aa-\	.
!	!	!LO:DY:t=f
.	8a-\J	f
*clefF4	*	*
=145||	=145||	=145||
!	!LO:TX:i:b:t=marcato il tema.	!
4f\ 4d-\	8aa-\L	.
.	8a-\	.
4D-\	8a-\	.
.	8a-\	.
4f\ 4d-\	8aa-\	.
.	8a-\J	.
=146	=146	=146
4b-\ 4en\	8gg\L	.
.	8g\	.
4D-\	8g\	.
.	8g\	.
4b-\ 4e\	8gg\	.
.	8g\J	.
=147	=147	=147
4e-X\ 4c\	8gg-X\L	.
.	8g-X\	.
4D-\	8g-\	.
.	8g-\	.
4e-\ 4c\	8gg-\	.
.	8g-\J	.
=148	=148	=148
4a-\ 4dn\	8ff\L	.
.	8f\	.
4D-X\	8f\	.
.	8f\	.
4a-\ 4d\	8ff\	.
.	8f\J	.
=149	=149	=149
4dn\ 4B-\	8ff\L	.
.	8f\	.
4GG/	8f\	.
.	8ff\	.
4e-\ 4B-\	8g-X\	.
.	8gg-X\J	.
=150	=150	=150
4f\ 4d-X\	8gn\L	.
.	8ggn\	.
4AA-/	8a-\	.
.	8aa-\	.
4a-\ 4f\	8dd-\	.
.	8ddd-\J	.
=151	=151	=151
4AA-/	8ddn\L	.
.	8dddn\	.
4g\ 4B-\	8ee-\	.
.	8eee-\	.
4g-X\ 4c\	8een\	.
.	8eeen\J	.
!LO:LB:g=original	!LO:LB:g=original	!
=152	=152	=152
4f\ 4d-\	8ff\L	.
.	8fff\	.
4D-\	8dd-\	.
.	8ddd-\	.
*clefG2	*	*
4dd-\ 4f\	8a-\	.
.	8aa-\J	.
*clefF4	*	*
=153	=153	=153
4f\ 4d-\	8aa-\L	.
.	8a-\	.
4D-\	8a-\	.
.	8a-\	.
4f\ 4d-\	8aa-\	.
.	8a-\J	.
=154	=154	=154
4b-\ 4en\	8gg\L	.
.	8g\	.
4D-\	8g\	.
.	8g\	.
4b-\ 4e\	8gg\	.
.	8g\J	.
=155	=155	=155
4e-X\ 4c\	8gg-X\L	.
.	8g-X\	.
4D-\	8g-\	.
.	8g-\	.
4e-\ 4c\	8gg-\	.
.	8g-\J	.
=156	=156	=156
4a-\ 4dn\	8ff\L	.
.	8f\	.
4D-X\	8f\	.
.	8f\	.
4a-\ 4d\	8ff\	.
.	8f\J	.
=157	=157	=157
4GG-X/	8ff\L	.
.	8f\	.
4e-\ 4B-\	8g-X\	.
.	8gg-X\	.
4en\	8gn\	.
.	8ggn\J	.
=158	=158	=158
4AA-/	8aa-\L	.
.	8a-\	.
4g-X\ 4d-\	8b-\	.
.	8bb-\	.
4gn\	8bn\	.
.	8bbn\J	.
=159	=159	=159
4A-\	8cc\L	.
.	8ccc\J	.
*clefG2	*	*
8a-/L 8g-X/	4fff\ 4aa-\	.
8b-/	.	.
8bn/	4eee-\	.
8cc/J	.	.
=160	=160	=160
4dd-/ 4f/	4ddd-\ 4aa-\	.
*	*8va	*
4D-/	4dddd-\	.
*	*X8va	*
4r	4r	.
*clefF4	*	*
!LO:LB:g=original	!LO:LB:g=original	!
=161||	=161||	=161||
2r	4e-/	p
.	32qqg/	.
.	4f/	.
4r	4e-/	.
=162	=162	=162
4EE-/	2.ee-\	.
*clefG2	*	*
4an/ 4g/ 4c/	.	.
4b-/ 4g/ 4d-/	.	.
=163	=163	=163
!	!	!LO:DY:t=mf.
2r	4e-/	mf
.	32qqg/	.
.	4f/	.
4r	4e-/	.
*clefF4	*	*
=164	=164	=164
4EE-/	2.ee-\	.
*clefG2	*	*
4an/ 4g/ 4c/	.	.
4b-/ 4g/ 4d-/	.	.
=165	=165	=165
2r	4ee-\	.
.	32qqgg\	.
.	4ff\	.
4r	4ee-\	.
*clefF4	*	*
=166	=166	=166
4E-\	2eee-\	>
4an\ 4g\ 4c\	.	.
4b-\ 4g\ 4d-\	4ee-\	]
=167	=167	=167
4E-\	2eee-\	>
4an\ 4g\ 4c\	.	.
4b-\ 4g\ 4d-\	4ee-\	]
=168	=168	=168
2r	4ee-\ 4e-\	.
.	4ddn\ 4f\	.
4r	4dd-X\ 4g\	.
=169	=169	=169
4AA-\	8cc\L 8a-\	.
.	8a-\	p
4E-\	8cc\ 8a-\	.
.	8a-\J	.
!	!LO:TX:i:b:t=brillante	!
4e-\ 4A-\	4cc\ 4a-\	.
=170	=170	=170
4AA-\	8bn\L 8a-\	.
.	8ff\	.
4Dn\	8ff\	.
.	8fff\J	.
4dn\ 4A-\	4fff\	.
!LO:LB:g=original	!LO:LB:g=original	!
=171	=171	=171
4AA-\	8b-\L 8g\	.
.	8g\	.
4D-\	8b-\ 8g\	.
.	8g\J	.
4d-\ 4G\	4b-\ 4g\	.
=172	=172	=172
4AA-\	8an\L 8g-X\	.
.	8ee-\	.
4C\	8ee-\	.
.	8eee-\J	.
4c\ 4G-X\	4eee-\	.
=173	=173	=173
4DD-/	8a-X\L 8f\	.
.	8f\	.
4A-\ 4F\	8a-\ 8f\	.
.	8f\J	.
4DDn/	4b-\ 4f\	.
=174	=174	=174
4EE-\	4cc\ 4a-\ 4e-\	.
4E-\	8eee-\L 8ccc\	.
.	8gg\	>
4a-\ 4c\	8ccc\ 8aa-\	.
.	8ee-\J	.
=175	=175	=175
4b-\ 4g\ 4e-\ 4d-\	8bb-\L 8ee-\	.
.	8ddn\	.
4E-\	8gg\ 8dd-X\	.
.	8cc\	.
4EE-/	8ee-\ 8bn\	.
.	8b-X\J	]]
=176	=176	=176
4AA-\	8ff\L 8a-\	<
.	8ff\ 8an\	.
4E-\	8ff\ 8b-\	.
.	8ff\J 8bn\	.
4a-\ 4c\	4ee-\ 4cc\	[
*clefG2	*	*
=177	=177	=177
4A-/	8ccc\L 8aa-\	p
.	8aa-\	.
4e-/	8ccc\ 8aa-\	.
.	8aa-\J	.
4ee-/ 4a-/	4ccc\ 4aa-\	.
=178	=178	=178
4A-/	8bbn\L 8aa-\	.
.	8fff\	.
4dn/	8fff\	.
*	*8va	*
.	8ffff\J	.
4ddn/ 4a-/	4ffff\	.
*	*X8va	*
!LO:LB:g=original	!LO:LB:g=original	!
=179	=179	=179
4A-/	8bb-\L 8gg\	.
.	8gg\	.
4d-X/	8bb-\ 8gg\	.
.	8gg\J	.
4dd-/ 4g/	4bb-\ 4gg\	.
=180	=180	=180
4A-/	8aan\L 8gg-X\	.
.	8eee-\	.
4c/	8eee-\	.
*	*8va	*
.	8eeee-\J	.
4cc/ 4g-X/	4eeee-\	.
*clefF4	*X8va	*
=181	=181	=181
4D-\	8aa-\L 8ff\	.
.	8ff\	.
4a-\ 4f\	8aa-\ 8ff\	.
.	8ff\J	.
4Dn\	4bb-\ 4ff\	.
=182	=182	=182
4C\	4ccc\ 4aa-\ 4ff\	.
*clefG2	*	*
*	*8va	*
4a-/ 4c/	8cccc\L 8aaa-\	.
.	8eeen\	>
4ff\	8aaa-\ 8fff\	.
.	8ccc\J	.
*	*X8va	*
=183	=183	=183
4gg\ 4een\ 4cc\ 4b-\	8ggg\L 8ccc\	.
.	8bbn\	.
4c/	8eeen\ 8bb-X\	.
.	8aan\	.
*clefF4	*	*
4C/	8ccc\ 8aa-X\	.
.	8gg\J	]]
=184	=184	=184
4a-\ 4c\ 4F\	4fff\ 4aa-\ 4ff\	.
4FF/	4r	.
4r	4r	.
=185	=185	=185
4AA-\	8cc\L 8a-\	/
.	8a-\	f
4E-\	8cc\ 8a-\	.
.	8a-\J	.
4e-\ 4A-\	4cc\ 4a-\	.
=186	=186	=186
4AA-\	8b-\L 8a-\	.
.	8ff\	.
4Dn\	8ff\	.
.	8fff\J	.
4dn\ 4A-\	4fff\	.
!LO:LB:g=original	!LO:LB:g=original	!
=187	=187	=187
4AA-\	8b-\L 8g\	.
.	8g\	.
4D-\	8b-\ 8g\	.
.	8g\J	.
4d-\ 4G\	4b-\ 4g\	.
=188	=188	=188
4AA-\	8an\L 8g-X\	.
.	8ee-\	.
4C\	8ee-\	.
.	8eee-\J	.
4c\ 4G-X\	4eee-\	.
=189	=189	=189
4DD-/	8a-X\L 8f\	.
.	8f\	.
4A-\ 4F\	8a-\ 8f\	.
.	8f\J	.
4DDn/	4b-\ 4f\	.
=190	=190	=190
4EE-/	4cc\ 4a-\ 4e-\	.
4E-\	8eee-\L 8ccc\	/
.	8gg\	>
4a-\ 4c\	8ccc\ 8aa-\	.
.	8ee-\J	.
=191	=191	=191
4b-\ 4g\ 4e-\ 4d-\	8bb-\L 8ee-\	.
.	8ddn\	.
4E-\	8gg\ 8dd-X\	.
.	8cc\	.
4EE-/	8ee-\ 8bn\	.
.	8b-X\J	]]
=192	=192	=192
4AA-\	8ff\L 8a-\	.
.	8ff\ 8an\	.
4E-\	8ff\ 8b-\	.
.	8ff\J 8bn\	.
4a-\ 4c\	4ee-\ 4cc\	.
*clefG2	*	*
=193	=193	=193
4A-/	8ccc\L 8aa-\	.
.	8aa-\	<
4e-/	8ccc\ 8aa-\	.
.	8aa-\J	.
4ee-/ 4a-/	4ccc\ 4aa-\	.
=194	=194	=194
4A-/	8bbn\L 8aa-\	.
.	8fff\	.
4dn/	8fff\	.
*	*8va	*
.	8ffff\J	.
4ddn/ 4a-/	4ffff\	.
*	*X8va	*
!LO:PB:g=original	!LO:PB:g=original	!
=195	=195	=195
4A-/	8bb-\L 8gg\	.
.	8gg\	.
4d-/	8bb-\ 8gg\	.
.	8gg\J	.
4dd-/ 4g/	4bb-\ 4gg\	.
=196	=196	=196
4A-/	8fff\L 8aa-\	.
.	8fff\ 8aan\	.
4c/	8fff\ 8bb-\	.
.	8fff\J 8bbn\	.
4cc/ 4g-X/	4eee-\ 4ccc\	.
*clefF4	*	*
=197	=197	=197
4D-\	8ff\L 8dd-\	.
.	8dd-\	.
4A-\	8ff\ 8dd-\	.
.	8dd-\J	.
4a-\ 4d-\	4ff\ 4dd-\	.
=198	=198	=198
4D-\	8een\L 8dd-\	.
.	8bb-\	.
4G\	8bb-\	.
.	8bbb-\J	.
4g\ 4d-\	4bbb-\	.
=199	=199	=199
4D-\	8ee-\L 8cc\	.
.	8cc\	.
4G-X\	8ee-\ 8cc\	.
.	8cc\J	.
4g-X\ 4c\	4ee-\ 4cc\	.
=200	=200	=200
4D-\	8bb-\L 8dd-\	.
.	8bb-\ 8ddn\	.
4F\	8bb-\ 8ee-\	.
.	8bb-\J 8een\	.
4f\ 4c-X\	4aa-\ 4ff\	.
=201	=201	=201
!	!	!LO:HP:t=cresc. molto
4GG-X/	8bb-\L 8gg-X\	<
.	8gg-\	.
*clefG2	*	*
4d-/ 4B-/	8bb-\ 8gg-\	.
.	8gg-\J	.
4dd-/ 4g-X/	4bb-\ 4gg-\	.
*clefF4	*	*
=202	=202	=202
4EE-/	8eee-\L 8ff#X\	.
.	8eee-\ 8gg\	.
*clefG2	*	*
4e-/ 4B-/	8eee-\ 8aa-\	.
.	8eee-\J 8aan\	.
4dd-\ 4gn\	4ddd-\ 4bb-\	.
*clefF4	*	*
!LO:LB:g=original	!LO:LB:g=original	!
=203	=203	=203
4AA-/	8ccc\L 8aa-\	.
.	8aa-\	<
*clefG2	*	*
4e-/ 4c/	8ccc\ 8aa-\	.
.	8aa-\J	.
4ee-/ 4a-/	4ccc\ 4aa-\	.
*clefF4	*	*
=204	=204	=204
4FF/	8fff\L 8aa-\	.
.	8fff\ 8aan\	.
*clefG2	*	*
4f/ 4c/	8fff\ 8bb-\	.
.	8fff\J 8bbn\	.
4ee-/ 4an/	4eee-\ 4ccc\	.
*clefF4	*	*
=205	=205	=205
4BB-\	8ddd-\L 8bb-\	.
.	8bb-\	.
*clefG2	*	*
4f/ 4d-/	8ddd-\ 8bb-\	.
.	8bb-\J	.
4ff\ 4b-\	4ddd-\ 4bb-\	.
*clefF4	*	*
=206	=206	=206
4GG/	8ggg\L 8bb-\	.
.	8ggg\ 8bbn\	.
*clefG2	*	*
4g/ 4dn/	8ggg\ 8ccc\	.
.	8ggg\J 8ddd-\	.
4ff/ 4bn/	4fff\ 4dddn\	[
=207	=207	=207
!	!LO:TX:i:b:t=rallent.	!
4c/	8aaa-\L 8bbn\	p
.	8aaa-\ 8ccc\	.
4b-/ 4en/	8aaa-\ 8ddd-\	.
.	8aaa-\J 8dddn\	.
4een\ 4b-\	4ggg\ 4eeen\	.
*clefF4	*	*
=208	=208	=208
4C\	8aa-\L 8bn\	.
.	8aa-\ 8cc\	.
4B-\ 4En\	8aa-\ 8dd-\	.
.	8aa-\J 8ddn\	.
4en\ 4B-\	4gg\ 4een\	.
=209	=209	=209
!	!LO:TX:i:b:t=espress.	!
4FF\	8aa-\L 8cc\	p
.	8aa-\ 8dd-\	.
4c\ 4A-\	8aa-\ 8ddn\	.
.	8aa-\ 8ee-\	.
4a-\ 4c\	8aa-\ 8ff\	.
.	8aa-\J 8ee-\	.
!LO:LB:g=original	!LO:LB:g=original	!
=210	=210	=210
4BB-\	4.aa-\ 4.ddn\	.
4dn\ 4A-\	.	.
!	!LO:N:vis=16	!
.	8fff\ 8aa-\	.
4a-\ 4d\	4fff\ 4aa-\	.
=211	=211	=211
4EE-/	8gg\L 8b-\	.
.	8gg\ 8bn\	.
4d-X\ 4G\	8gg\ 8cc\	.
.	8gg\ 8dd-\	.
4g\ 4d-\	8gg\ 8ee-\	.
.	8gg\J 8dd-\	.
=212	=212	=212
4FF/	4.aa-\ 4.cc\	.
4c\ 4A-\	.	.
.	8aaa-\ 8ccc\	.
4a-\ 4c\	4aaa-\ 4ccc\	.
=213	=213	=213
4DDn/	8aaa-\L 8fff\	.
.	8bb-\	.
4dn\ 4A-\	8fff\ 8bbn\	.
.	8gg\	.
4a-\ 4d\	8bb\ 8aa-\	.
.	8ddn\J	.
=214	=214	=214
4EE-/	8ccc\L 8aa-\	.
.	8ddn\	.
4c\ 4E-\	8aa-\ 8ee-\	.
.	8bn\	.
4a-\ 4c\	8ee-\ 8cc\	.
.	8a-\J	.
=215	=215	=215
4EE-/	8dd-\L 8g\	.
.	8f\	.
4G\ 4E-\	8b-\ 8en\	.
.	8e-X\	.
4d-\ 4G\	8g\ 8dn\	.
.	8d-X\J	.
=216	=216	=216
4AA-\	4a-\ 4c\	.
4A-\ 4E-\	8aa-\L 8cc\	.
.	8ccc\J 8aa-\	.
4e-\ 4A-\	4aaa-\ 4ccc\	.
!LO:LB:g=original	!LO:LB:g=original	!
=217	=217	=217
4FF/	8aa-\L 8cc\	<
.	8aa-\ 8dd-\	.
4c\ 4A-\	8aa-\ 8ddn\	.
.	8aa-\ 8ee-\	.
4a-\ 4c\	8aa-\ 8ff\	.
.	8aa-\J 8ee-\	.
=218	=218	=218
4BB-\	8aa-\L 8ddn\	.
.	8ccc\ 8aa-\	.
*	*8va	*
4dn\ 4A-\	8aaa-\ 8ddd\	.
.	8cccc\J 8aaa-\	.
4a-\ 4d\	4aaaa-\ 4cccc\	.
*	*X8va	*
=219	=219	=219
4EE-/	8gg\L 8b-\	.
.	8gg\ 8bn\	.
4d-X\ 4G\	8gg\ 8cc\	.
.	8gg\ 8dd-\	.
4g\ 4d-\	8gg\ 8ee-\	.
.	8gg\J 8dd-\	.
=220	=220	=220
4FF/	8aa-\L 8cc\	.
.	8ccc\ 8aa-\	.
*	*8va	*
4a-\ 4c\ 4A-\	8aaa-\ 8ccc\	.
.	8cccc\J 8aaa-\	.
4r	4aaaa-\ 4cccc\	.
=221	=221	=221
4DDn/	8aaaa-\L 8cccc-X\	.
.	8gggg\ 8bbb-\	.
4a-\ 4dn\ 4A-\	8ffff#X\ 8aaan\	[
!	!	!LO:DY:t=ff.
.	8ffffn\ 8aaa-X\	ff
4r	8eeeen\ 8ggg\	.
.	8eeee-X\J 8ggg-X\	.
=222	=222	=222
4EE-/	8ddddn\L 8fff\	.
.	8cccc#X\ 8eeen\	.
4a-\ 4c\ 4A-\	8ccccn\ 8eee-X\	.
.	8bbbn\ 8dddn\	.
4ryy	8bbb-X\ 8ddd-X\	.
!	!LO:TX:i:a:t=loco.	!
.	8aaan\J 8ccc\	.
*	*X8va	*
!LO:LB:g=original	!LO:LB:g=original	!
=223	=223	=223
4DDn/	8aaa-\L 8ccc-X\	.
.	8ggg\ 8bb-\	.
4a-\ 4dn\ 4A-\	8fff#X\ 8aan\	.
.	8fffn\ 8aa-X\	.
4r	8eeen\ 8gg\	.
.	8eee-X\J 8gg-X\	.
=224	=224	=224
4EE-/	8dddn\L 8ff\	.
.	8ccc#X\ 8een\	.
4a-\ 4c\ 4A-\	8cccn\ 8ee-X\	.
.	8bbn\ 8ddn\	.
4r	8bb-X\ 8dd-X\	.
.	8aan\J 8cc\	.
=225	=225	=225
4DDn/	4aa-\ 4cc-X\	.
*clefG2	*	*
4dn/ 4c-X/	8a-\L 8f\	.
!	!LO:TX:i:b:t=martellato.	!
.	8cc-\J	.
4f/ 4d/	8cc-\L 8a-\	.
.	8ddn\J	.
=226	=226	=226
4a-/ 4f/	8ddn\L 8cc-X\	.
.	8ff\	.
4cc-X/ 4a-/	8ff\ 8dd\	.
.	8aa-\	.
4ddn\ 4cc-\	8aa-\ 8ff\	.
.	8ccc-X\J	.
=227	=227	=227
4ff\ 4ddn\	8ccc-X\L 8aa-\	.
.	8dddn\	.
4aa-\ 4ff\	8ddd\ 8ccc-\	.
.	8fff\	.
4ccc-X\ 4aa-\	8fff\ 8ddd\	.
.	8aaa-\J	.
=228	=228	=228
*	*8va	*
4aaa-\	4aaaa-\	.
*	*X8va	*
4r	4bbn\	.
4r	4bbbn\	.
*clefF4	*	*
!LO:LB:g=original	!LO:LB:g=original	!
=229	=229	=229
!	!	!LO:DY:t=fff.
4EE-/	4cccc\ 4aaa-\ 4ccc\	fff
!LO:TX:t=P:problem=klamra łukowa	!	!
!LO:TUP:a	!	!
12E-\L	4ccc\ 4aa-\ 4cc\	.
12A-\	.	.
12c\J	.	.
4a-\	4cccc\ 4aaa-\ 4ccc\	.
=230	=230	=230
*	*8va	*
4EE-/	4ffff\ 4bbbn\ 4fff\	.
*	*X8va	*
!LO:TUP:a	!	!
!LO:TX:t=P:problem=klamra łukowa	!	!
12Dn\L	4fff\ 4bb\ 4ff\	.
12A-\	.	.
12dn\J	.	.
*	*8va	*
4a-\	4ffff\ 4bbb\ 4fff\	.
*	*X8va	*
=231	=231	=231
*Xtuplet	*	*
4EE-/	4bbb-X\ 4ggg\ 4bb-X\	.
12D-X\L	4bb-\ 4gg\ 4b-X\	.
12G\	.	.
12d-X\J	.	.
4g\	4bbb-\ 4ggg\ 4bb-\	.
=232	=232	=232
*	*8va	*
4EE-/	4eeee-\ 4aaan\ 4eee-\	.
*	*X8va	*
12C\L	4eee-\ 4aa\ 4ee-\	.
12G-X\	.	.
12c\J	.	.
*	*8va	*
4g-X\	4eeee-\ 4aaa\ 4eee-\	.
*	*X8va	*
=233	=233	=233
4DD-/	4aaa-\ 4fff\ 4aa-\	.
12D-\L	4aa-\ 4ff\ 4a-\	.
12F\	.	.
12d-\J	.	.
4f\	4bbb-\ 4fff\ 4bb-\	.
=234	=234	=234
4EE-/	4cccc\ 4aaa-\ 4ccc\	.
12E-\L	4ccc\ 4aa-\ 4cc\	.
12A-\	.	.
12c\J	.	.
*	*8va	*
4a-\	[4eeee-\ [4eee-\	.
=235	=235	=235
4EE-/	4eeee-\] 4eee-\]	.
12E-\L	4ddddn\ 4ggg\ 4dddn\	.
12G\	.	.
12d-\J	.	.
4g\	4dddd-X\ 4ddd-X\	.
=236	=236	=236
4AA-/	4cccc\ 4ccc\	.
12E-\L	4aaaa-\ 4aaa-\	.
12A-\	.	.
12c\J	.	.
4a-\	4aaa-\ 4aa-\	.
*	*X8va	*
!LO:PB:g=original	!LO:PB:g=original	!
=237	=237	=237
*	*8va	*
4AA-/	4cccc\ 4aaa-\ 4ccc\	.
*	*X8va	*
12E-\L	4ccc\ 4aa-\ 4cc\	.
12A-\	.	.
12c\J	.	.
*	*8va	*
4a-\	4cccc\ 4aaa-\ 4ccc\	.
*	*X8va	*
=238	=238	=238
*	*8va	*
4AA-/	4ffff\ 4bbbn\ 4fff\	.
*	*X8va	*
12Dn\L	4fff\ 4bb\ 4ff\	.
12A-\	.	.
12dn\J	.	.
*	*8va	*
4a-\	4ffff\ 4bbb\ 4fff\	.
*	*X8va	*
=239	=239	=239
*	*8va	*
4AA-/	4bbb-X\ 4ggg\ 4bb-X\	.
*	*X8va	*
12D-X\L	4bb-\ 4gg\ 4b-\	.
12G\	.	.
12d-X\J	.	.
*	*8va	*
4g\	4bbb-\ 4ggg\ 4bb-\	.
*	*X8va	*
=240	=240	=240
*	*8va	*
4AA-/	4eeee-\ 4aaan\ 4eee-\	.
*	*X8va	*
12C\L	4eee-\ 4aa\ 4ee-\	.
12G-X\	.	.
12c\J	.	.
*	*8va	*
4g-X\	4eeee-\ 4aaa\ 4eee-\	.
*	*X8va	*
=241	=241	=241
4DD-/	4aaa-\ 4fff\ 4aa-X\	.
12D-\L	4aa-\ 4ff\ 4a-\	.
12F\	.	.
12d-\J	.	.
4f\	4bbb-\ 4fff\ 4bb-\	.
=242	=242	=242
4EE-/	4cccc\ 4aaa-\ 4ccc\	.
12E-\L	4ccc\ 4aa-\ 4cc\	<
12A-\	.	.
12c\J	.	.
*	*8va	*
4a-\	4eeee-\ 4eee-\	.
*	*X8va	*
=243	=243	=243
4EE-/	4cccc\ 4aaa-\ 4ccc\	.
12En\L	4ccc\ 4aa-\ 4cc\	.
12A-\	.	.
12c\J	.	.
*	*8va	*
4a-\	4eeeen\ 4eeen\	.
*	*X8va	*
=244	=244	=244
4EE-/	4cccc\ 4aaa-\ 4ccc\	.
12F\L	4ccc\ 4aa-\ 4cc\	.
12A-\	.	.
12c\J	.	.
*	*8va	*
4a-\	4ffff\ 4fff\	[[
*	*X8va	*
!LO:LB:g=original	!LO:LB:g=original	!
=245	=245	=245
*	*8va	*
!	!LO:TX:i:b:t=martelato	!
4EE-/ 4EEE-/	4ffff\ 4dddd-\ 4ggg\ 4fff\	.
4EE-/ 4EEE-/	4ffff\ 4dddd-\ 4ggg\ 4fff\	.
*	*X8va	*
4r	4r	.
*clefG2	*	*
=246	=246	=246
4g/ 4B-^^/	4gg\ 4b-^^\	.
4g/ 4Bn^^/	4gg\ 4bn^^\	.
4g/ 4c^^/	4gg\ 4cc^^\	.
*clefF4	*	*
=247	=247	=247
*	*8va	*
4E-/ 4EE-/	4gggg\ 4dddd-\ 4ggg\	.
4E-/ 4EE-/	4gggg\ 4dddd-\ 4ggg\	.
*	*X8va	*
4r	4r	.
*clefG2	*	*
=248	=248	=248
4g/ 4d-^^/	4gg\ 4dd-^^\	.
4g/ 4e-^^/	4gg\ 4ee-^^\	.
4g/ 4d-^^/	4gg\ 4dd-^^\	.
*clefF4	*	*
=249	=249	=249
!	!LO:TX:i:b:t=con bravura.	!
4AA-\	8aa-\L 8cc\	.
.	8ccc\ 8aa-\	.
*	*8va	*
4c\ 4E-^^\	8aaa-\ 8ccc\	.
.	8cccc\J 8aaa-\	.
4a-\	4aaaa-\ 4cccc\	.
*	*X8va	*
=250	=250	=250
4AA-\	8aa-\L 8cc\	.
.	8ccc\ 8aa-\	.
*	*8va	*
4c\ 4En^^\	8aaa-\ 8ccc\	.
.	8cccc\J 8aaa-\	.
4a-\	4aaaa-\ 4cccc\	.
*	*X8va	*
=251	=251	=251
4AA-\	8aa-\L 8cc\	.
.	8ccc\ 8aa-\	.
*	*8va	*
4c\ 4E-X^^\	8aaa-\ 8ccc\	.
.	8cccc\J 8aaa-\	.
4a-\	4aaaa-\ 4cccc\	.
*	*X8va	*
!LO:LB:g=original	!LO:LB:g=original	!
=252	=252	=252
4AA-\	8aa-\L 8cc\	.
.	8ccc\ 8aa-\	.
*	*8va	*
4c\ 4En^^\	8aaa-\ 8ccc\	.
.	8cccc\J 8aaa-\	.
4a-\	4aaaa-\ 4cccc\	.
=253	=253	=253
4AA-/	8aaaa-\L 8cccc\	.
.	8aaa-\	.
*clefG2	*X8va	*
4ff\ 4cc\ 4f^^\	8aaa-\ 8ccc\	.
.	8aa-\	.
4r	8aaa-\ 8ccc\	.
.	8aa-\J	.
*clefF4	*	*
=254	=254	=254
4AA-/	8aaa-\L 8ccc\	.
.	8aa-\	.
4en\ 4c\ 4En^^\	8aa-\ 8cc\	.
.	8a-\	.
4r	8aa-\ 8cc\	.
.	8a-\J	.
=255	=255	=255
4AAA-/	8aa-\L 8cc\	.
.	8a-\	.
4F\ 4C\ 4FF^^\	8a-\ 8c\	.
.	8A-\	.
4r	8a-\ 8c\	.
.	8A-\J	.
=256	=256	=256
4AAA-\	8a-</L 8c</	.
.	8A-</	.
4EEn^^>\	8A-</ 8C</	.
.	8AA-</	.
4rCC	8A-</ 8C</	.
.	8AA-</J	.
=257	=257	=257
!	!LO:TX:t=P:problem=mixed beam	!
4AAA-\	8A-</L 8C</	.
.	8c</ 8E-</	.
4rAA	8e-</ 8A-</	.
.	8a-\ 8c\	.
4rAA	8cc\ 8e-\	.
.	8ee-\J 8a-\	.
!LO:LB:g=original	!LO:LB:g=original	!
=258	=258	=258
4c\ 4A-\ 4E-\ 4AA-\	8aa-\L 8cc\	.
.	8ccc\ 8ee-\	.
4r	8eee-\ 8aa-\	.
.	8aa-\ 8cc\	.
4r	8ccc\ 8ee-\	.
.	8eee-\J 8aa-\	.
=259	=259	=259
4AAA-/	4aaa-\ 4ccc\	.
4r	4r	.
!	!LO:TX:i:b:t=Fine (Hietzing Podersdorf.)	!
4r	4r	.
==	==	==
*-	*-	*-
!!!system-decoration: {(s1,s2)}
!!!RDF**kern: > = above
!!!RDF**kern: < = below
!!!RDF**dynam: p = "p."
!!!RDF**dynam: f = "f."
!!!RDF**dynam: pp = "pp."
!!!EED: Andrzej Borzym
!!!EEV: 2021-05-19
!!!ENC: Andrzej Gręziak
!!!END: 2021-05-04
